!!!COM: Music21
!!!OTL: Pasodoble para Chelo
!!!OMV: pezas_pasodobles_pasodoble-para-chelo_pasodoble-para-chelo-partitura.musicxml
**kern
*part1
*staff1
*I"Bagpipes
*I'Bag
*clefG^2
*k[]
*M2/4
=1
!LO:TX:a:t=Vivace
*MM140
!LO:TX:a:t=[quarter]=140
8ccL
8ddJ
8eeL
8ffJ
=
4gg
8ccL
[8ffJ
=
8ffL]
8ddJ
[4ee
=
4ee]
8ccL
8ddJ
=
8eeL
8ffJ
4gg
=
8eeL
[8ffJ
8ffL]
8ddJ
=
2cc
=
8ccL
8ddJ
8eeL
8ffJ
=
4gg
8ccL
[8ffJ
=
8ffL]
8ddJ
[4ee
=
4ee]
8ddL
8ccJ
!!linebreak:original
=
8ddL
8eeJ
8ffL
8eeJ
!!linebreak:original
=
8ddL
8ffJ
8eeL
8ddJ
=
2cc
=
8ccL
8ddJ
8eeL
8ffJ
=
8ggL
8ffJ
8eeL
8ffJ
=
8eeL
8ddJ
[4ee
=
4ee]
8ccL
8ddJ
=
8eeL
8ffJ
8ggL
8ffJ
=
8eeL
8ffJ
8eeL
8ddJ
=
2cc
=
8ccL
8ddJ
8eeL
8ffJ
=
8ggL
8ffJ
8eeL
8ffJ
!!linebreak:original
=
8eeL
8ddJ
[4ee
!!linebreak:original
=
4ee]
8ddL
8ccJ
=
8ddL
8eeJ
4ff
=
8ddL
[8ffJ
8ffL]
8eeJ
=
2cc
=||
8ccL
8ddJ
8eeL
8ffJ
=
8ggL
8ffJ
8eeL
8ggJ
=
8ffL
8eeJ
4gg
=
8ffL
[8eeJ
4ee_
=
8eeL]
8ccJ
8ddL
8eeJ
=
8ffL
8ggJ
8ffL
8eeJ
=
8ggL
8ffJ
8eeL
[8ddJ
!!linebreak:original
=
4.dd]
8b
=
8ccL
8ddJ
8eeL
8ffJ
=
8eeL
8ddJ
8ffL
8eeJ
=
8ddL
[8ffJ
8ffL]
8eeJ
=
2dd
=
8bL
8ccJ
8ddL
8eeJ
=
8ffL
8eeJ
8ddL
8ffJ
=
8eeL
8ddJ
[4cc
=
2cc]
=||
8ccL
8ddJ
8eeL
8ffJ
=
8ggL
8ffJ
8eeL
8ggJ
!!pagebreak:original
=
8ffL
8eeJ
4gg
=
8ffL
[8eeJ
4ee_
=
8eeL]
8ccJ
8ddL
8eeJ
=
8ffL
8ggJ
8ffL
8eeJ
=
8ggL
8ffJ
8eeL
[8ddJ
!!linebreak:original
=
4.dd]
8b
=
8ccL
8ddJ
8eeL
8ffJ
=
8eeL
8ddJ
8ffL
8eeJ
=
8ddL
[8ffJ
8ffL]
8eeJ
=
2dd
=
8bL
8ccJ
8ddL
8eeJ
=
8ffL
8eeJ
8ddL
8ffJ
=
8eeL
8ddJ
[4cc
=
2cc]
=||
*-
!!!system-decoration: s1,s2
